X:1
T:Jesus Christ l'Emmanuel - Kyrie de Noël
T:Jesus Christ l'Emmanuel - Kyrie de Noël
T:Langrée
C:Langrée
%%score [ 1 2 3 ]
L:1/8
Q:1/4=100
M:4/4
K:Bb
V:1 treble nm="Soprano" snm="S."
V:2 treble nm="Alto" snm="A."
V:3 bass nm="Bass" snm="B."
V:1
"^1""^3" D2"^1ere fois choeur (3 voix)""^2éme fois choeur + assemblée" G2 | ^F2 D2 G2 A2 | %2
w: 1.3Ky- ri-|e e- le- i-|
w: ||
 B4 c2 B2 | A2 G2 A2 ^F2 | G4 :|"^Choeur 2 voix  + orgue" d2 d2 | A2 B2 c2 B2 | A4 d2 d2 | %8
w: son. Ky- ri-|e e- le- i-|son.|1.Je- sus|Christ l'Em- ma- nu-|el. Dieu lu-|
w: |||3.Toi le|Fils du Dieu vi-|vant, Tu nous|
 A2 B2 c2 B2 | A4 | D2 G2 | ^F2 D2 G2 A2 | B4 c2 B2 | A2 G2 A2 ^F2 | G4 | %15
w: miè- re de No-|ël!|1.3Ky- ri-|e e- le- i-|son. Ky- ri-|e e- le- i-|son.|
w: donnes un coeur d'en-|fant!||||||
[M:3/4]"^1ere fois choeur 1 voix" G2 |"^2éme fois Choeur + Assemblée" d3 dAB | c4 (G2 | B3) c^AB | %19
w: Chris-|te e- le- i-|son. Chris-|te e- le- i-|
w: ||||
 G4 z2 :|"^Choeur 1 voix + orgue" G2 | A3 AAA | B2 A2 B2 | c3 BAG | G2 ^F2 GG | A3 AAA | B2 A2 BA | %27
w: son.|2.Vain-|queur de nos té-|nè- bres, Tu|viens sau- ver ton|peu- ple Dieu de|2.Paix par- mi les|hom- mes tu te|
w: ||||||||
 G3 AG^F | G2 G2 z2 | G2 | d3 dAB | c4 (G2 | B3) cAB |"^>3" G4 z2 |] %34
w: fais mi- sé- ri-|cor- de.|Chris-|te e- le- i-|son, Chris-|te e- le- i-|son.-|
w: |||||||
V:2
 D2 B,2 | A,2 D2 D2 C2 | D4 G2 G2 | E2 D2 E2 C2 | B,4 :| (G4 | A3) z z4 | ^F4 (G4 | A3) z z4 | %9
w: 1.3.Ky- ri-|e e- le- i-|son. Ky- ri-|e e- le- i-|son.|||||
 ^F4 | D2 B,2 | A,2 D2 D2 C2 | D4 G2 G2 | E2 D2 E2 C2 | B,4 |[M:3/4] G2 | D4 D2 | C4 (G2 | %18
w: |1.3.Ky- ri-|e e- le- i-|son. Ky- ri-|e e- le- i-|son.|Chris-|te elei-|son Chris-|
 G2) =E2 F2 | B,4 z2 :| B,2 | (D6 | D4) D2 | G4 E2 | B,2 A,2 B,2 | (D6 | D4) =F2 | B,2 E2 A,2 | %28
w: te e- lei-|son.|||||||||
 B,4 z2 | B,2 | D4 D2 | C4 G2 | G2 =E2 ^F2 | B,4 z2 |] %34
w: |Chris-|te elei-|son, Chris-|te e- lei-|son.-|
V:3
 B,,2 G,,2 | D,2 C,2 B,,2 A,,2 | G,,2 G,>F, E,2 D,>D, | C,2 B,,2 C,2 D,2 | G,,4 :| B,2 B,2 | %6
w: 1.3.Ky- ri-|e e- le- i-|son Ky- ri- e Ky- ri-|e e- le- i-|son.||
 C2 B,2 A,2 G,2 | D4 B,2 B,2 | C2 B,2 A,2 G,2 | D4 | B,,2 G,,2 | D,2 C,2 B,,2 A,,2 | %12
w: ||||1.3.Ky- ri-|e e- le- i-|
 G,,2 G,>F, E,2 D,>D, | C,2 B,,2 C,2 D,2 | G,,4 |[M:3/4] G,2 | ^F,4 =F,2 | =E,4 _E,2 | %18
w: son Ky- ri- e Ky- ri-|e e- le- i-|son.|Chris-|te elei-|son Chris-|
 D,2 C,2 D,2 | G,,2 z4 :| z2 | z2 D,2 ^F,2 | G,2 D,2 G,,2 | A,,2 B,,2 C,2 | D,2 D,,2 G,2 | %25
w: te e- lei-|son.||||||
 ^F,2 D,2 F,2 | G,2 D,2 D,2 | E,2 C,2 D,2 | G,,4 z2 | G,2 | ^F,4 =F,2 | =E,4 _E,2 | D,2 C,2 D,2 | %33
w: ||||Chris-|te elei-|son, Cris-|te e- lei-|
 G,,4 z2 |] %34
w: son.-|

